X:1
T:Loch Katrine
T:Loch Katrine
T:Nathaniel Gow (1763-1831)
C:Nathaniel Gow (1763-1831)
L:1/8
M:4/4
K:G
V:1 treble 
V:1
 (d<G)G>d TB2 Gd | BGGd B<B gB | (d<G)G>d TB2 Gg |{f} g2 dB A<A e2 | dGGd TB2 Gd | B<GG>d B<B gB | %6
 dGGd TB2 Gg |{f} g2 dB A<A e2 || dB (b/a/g/f/) Tg2{fg} dg | (e/f/g) dg B<B ge | %10
 dB (b/a/g/f/) Tg2{fg} dg | (e/f/g) Bg A<A e2 | dB (b/a/g/f/) Tg2{fg} d>g | (e/f/g) dg B<B ge | %14
 dB b>g afgd | (e/fg) B3/2 g/ A<A e2 | dBBd B<BdB | BGGd B<B gB | dGGd BGdB | e<eg>B A<A e2 || %20
 d<Bg>B dBBg | d<Bg>d B<B e2 | d<Bg>B dBBg | (e/f/g) Bg A<A e2 | d<Bg>B dBBg | d<Bg>d B<B e2 | %26
 d<Bb>g a>fg>d | (e/f/g) Bg A<A e2 || %28

